!!!OTL: 497. Wer weiss, ob wir uns wiedersehn!
!!!ARE: Europa, Mitteleuropa, Deutschland, Rheinland
!!!SCT: B0497
!!!TXL: @@DE
!!!YEM: Copyright 1995, estate of Helmut Schaffrath.
**kern	**text
*ICvox	*
*Ivox	*
*clefG2	*
!! Mixed meters:  3/4; 4/4
*M3/4	*
*k[f#]	*
*G:	*
!LO:TX:a:t=Ernſt und gemeſſen.	!
{4d	Wie
=1	=1
8.b	iſt
16a	die
8g	Trennung
8g	.
8f#	doch
8g	ſo
=2	=2
4a	ſchwer,
4r}	.
{4d	ſie
=3	=3
8.cc	bringt
16b	oft
4a	Gram
4dd	und
=4	=4
2b}	Leid.
{4d	Der
=5	=5
8.b	Ab-
16a	-ſchied
8g	drückt
8g	aufs
8f#	Herʒ
8g	ſo
=6	=6
4a	ſchwer,
4r}	.
{4d	hin
=7	=7
8.cc	iſt
16b	die
4a	fro-
4dd	-he
=8	=8
2b	Ʒeit.
8r}	.
{8g	Das
=9	=9
8f#	Schick-
8g	-ſal
4.a	treibt
8a	von
=10	=10
8g	Ort
8a	ʒu
4b	Ort
8r}	.
{8g	den
=11	=11
8f#	ei-
8g	-nen
4.a	hie,
8a	den
=12	=12
8g	an-
8a	-dern
4b	dort,
8r}	.
{8g	und
=13	=13
8.e	man-
16f#	-cher
8g	ruft
8f#	ʒur
8g	Heimath
8a	.
=14	=14
2b;}	ſchön
{4d	Wer
=15	=15
4.b	weiß,
8b	ob
8a	wir
8g	uns
=16	=16
8.dd^	wie-
16cc	-derſehn!
4cc	.
8r}	.
{8cc	Wer
=17	=17
*M4/4	*
*met(c)	*
4.b	weiß,
8b	ob
8a	wir
8cc	uns
8e	wie-
8f#	-der-
=18	=18
2g	-ſehn!
4r}	.
==	==
!!!AGN: Abschieds - Lied
!!!GTL: Abschiedslieder
!!!ONB: ESAC (Essen Associative Code) Database: BOEHME
!!!AMT: irregular
!!!AIN: vox
!!!EED: Helmut Schaffrath
!!!EEV: 1.0
!!Rheinländiſch.
!!@@COMMENT:"Ein neues Abſchiedslied am Rhein vom Volke mit geſungen. Mündlich aus Burgſolms
!!Hr. Wetʒlar) und dem Hochwald in mehreren Lesarten. (K. Becker's Handſchriftl. Sammlung. ) -
!!Auch mit der ʒweiten Strophe wird das Lied angefangen: "Es ſtehn ʒwei Freunde rc. oder
!!"Ʒwei Freunde ſtehen Hand in Hand" r. Die erſte bleibt dann fort."
!!@@END:
!!!URL-scan: https://archive.org/details/BoehmeVtLieder1895/page/n397/mode/2up
!!!ENC: Anna Maria Matuszewska
!!!EEV: 2024/10/07
*-	*-
